icons/social-linkedin-original.svg

<svg viewBox="0 0 24 24"><g clip-path="url(#a)"><path fill="#0a66c2" d="M22.2 0h-20.4a2 2 0 0 0-1.8 1.8v20.4a2 2 0 0 0 1.8 1.8h20.4a2 2 0 0 0 1.8-1.8v-20.4a2 2 0 0 0-1.8-1.8Zm-15 20.4h-3.7v-11.4h3.7zm-1.9-13a2 2 0 1 1 2.1-2 2 2 0 0 1-2 2Zm15.2 13h-3.7v-6.2c0-1.9-.7-2.4-1.8-2.4-1 0-2 .8-2 2.4v6.3h-3.7v-11.5h3.5v1.6h0c.4-.7 1.6-2 3.5-2 2 0 4.2 1.3 4.2 4.8z"/></g><defs><clipPath id="a"><path fill="#fff" d="M0 0h24v24h-24z"/></clipPath></defs></svg>

<svg viewBox="0 0 24 24"><g clip-path="url(#a)"><path fill="#0a66c2" d="M22.2 0H1.8A2 2 0 0 0 0 1.8v20.4A2 2 0 0 0 1.8 24h20.4a2 2 0 0 0 1.8-1.8V1.8A2 2 0 0 0 22.2 0m-15 20.4H3.5V9h3.7zm-1.9-13a2 2 0 1 1 2.1-2 2 2 0 0 1-2 2m15.2 13h-3.7v-6.2c0-1.9-.7-2.4-1.8-2.4-1 0-2 .8-2 2.4v6.3H9.2V9h3.5v1.6c.4-.7 1.6-2 3.5-2 2 0 4.2 1.3 4.2 4.8z"/></g><defs><clipPath id="a"><path fill="#fff" d="M0 0h24v24H0z"/></clipPath></defs></svg>
